X:1211
T:Come Along With Me
O:england
R:double jig
M:6/8
L:1/8
Q:120
K:F
fd|cAF FGF|FAc def|cAF FAc|dGG GAB|
cAF D2F|CFA GAB|cdc BAG|AFF F:|
ge|faf cde|fFa gfe|fFF ABc|dBG Gge|
faf cfc|BdB GAB|{d}cdc BAG|AFF F:|


